X:39284757657338
T:7-9-10-2-2-8-4-7-5-8-8-9-7-3-3-4
%%setfont-1 Courier-Bold 8
T:$1K.516f::104:84:42:41:105:133:110:91:90:155:57:166:101:18:116:79::$0
T:$1Perm. No.: 39284757657338$0
M:3/8
L:1/8
Q:1/8=111
%%staves [1 2]
V:1 clef=treble
V:2 clef=bass
K:C
%1
[V:1]|: e/d/e/g/c'/g/ |\
[V:2]|: C,2z |\
%2
[V:1] c/G/e/c/g/e/ |\
[V:2] [E,2C,2]z |\
%3
[V:1] B/c/d/B/A/G/ |\
[V:2] G,,2z |\
%4
[V:1] c/B/c/e/G |\
[V:2] [E,2C,2]z |\
%5
[V:1] ^fa/f/d/f/ |\
[V:2] C,2z |\
%6
[V:1] dg/d/B/d/ |\
[V:2] [G,2B,,2]z |\
%7
[V:1] ([d/B/][c/A/])([c/A/][B/G/])([B/G/][A/^F/]) \
[V:2] C,D,D,, \
%8a
[V:1]|1 [g2d2B2G2]z :|2
[V:2]|1 G,,G,/=F,/E,/D,/ :|2
%8b
[V:1] [g2d2B2G2]z |:\
[V:2] G,,B,/G,/^F,/E,/ |:\
%9
[V:1] ^f/a/d'/a/f/a/ |\
[V:2] [A,2C,2][A,C,] |\
%10
[V:1] g/b/g/d/B/G/ |\
[V:2] [D,2B,,2]z |\
%11
[V:1] ecG |\
[V:2] [E,/C,/]G,/[E,/C,/]G,/[E,/C,/]G,/ |\
%12
[V:1] d/b/g/d/B |\
[V:2] [B,2G,2]z |\
%13
[V:1] e/d/e/g/c'/g/ |\
[V:2] G,2 E, & C,2 C, |\
%14
[V:1] (Gce) |\
[V:2] [E,2C,2][G,C,] |\
%15
[V:1] d/f/a/f/d/B/ |\
[V:2] F,2G, |\
%16
[V:1] c2z :|]
[V:2] C,G,,C,, :|]
